!!!OTL: Dahang ge
!!!ARE: Asia, China,ÿNingxia Yenchuan
!! I, 169, 1)
!!!SCT: C1835
!!!YEM: Copyright 1995, estate of Helmut Schaffrath.
**kern
*ICvox
*Ivox
!! Mixed meters:  3/4; 2/4
*M2/4
*k[b-]
*F:
{8ff
16ff
16ff
8ff
16dd
16ff
8cc
16a
16cc
=1
4dd
8dd
8ff
=2
4ff
4dd
=3
4cc
4cc}
=4
*M3/4
{8cc
16cc
16dd
8ff
16a
16g
8f
16f
16d
=5
*M2/4
4cc
8cc
8dd
=6
4ff
4dd
=7
4cc
4cc}
==
!!!AGN: Haozi. Dahang
!! Han
!!!ONB: ESAC (Essen Associative Code) Database: SENGANSU
!!!AMT: irregular
!!!AIN: vox
!!!EED: Helmut Schaffrath
!!!EEV: 1.0
*-
